X: 1
T: Vals fr\aan \"Osterg\"otland efter Hagholm
O: efter Bruce Sagan
R: waltz
S: BlueRoseMusic.org image from Bruce Saagan 2020-9-25
Z: 2020 John Chambers <jc:trillian.mit.edu>
M: 3/4
L: 1/8
K: Gm
(dc) |\
"Gm"d2 (Ac) BA | B2 (GB) AG | "F"A2 A2 A2 | "D(m)"{B}d3 e(dc) |\
"Gm"{B}d2 (Ac) BA | B2 (GB) AG | "F"F2 (AF) AF | "Gm"[G4G,4] :|
|: d2 |\
"Gm"(g^f) (ga) bg | d3 dcB | "F"TB2 A2 A2 | "(D7)"c3 cBA |\
"Gm"TB2 A2 A2 | "Eb"TA2 G2 G2 | "D7"[G2G,2] [G2G,2] [^F2A,2] | "Gm"[G4G,4] :|
